share/icons/Flat-Remix-Blue-Dark/mimetypes/scalable/application-template.svg

<?xml version="1.0" encoding="UTF-8" standalone="no"?>
<svg
   xmlns:dc="http://purl.org/dc/elements/1.1/"
   xmlns:cc="http://creativecommons.org/ns#"
   xmlns:rdf="http://www.w3.org/1999/02/22-rdf-syntax-ns#"
   xmlns:svg="http://www.w3.org/2000/svg"
   xmlns="http://www.w3.org/2000/svg"
   xmlns:sodipodi="http://sodipodi.sourceforge.net/DTD/sodipodi-0.dtd"
   xmlns:inkscape="http://www.inkscape.org/namespaces/inkscape"
   width="36pt"
   height="36pt"
   version="1.1"
   viewBox="0 0 36 36"
   id="svg4"
   sodipodi:docname="application-template.svg"
   inkscape:version="1.0.1 (3bc2e813f5, 2020-09-07, custom)">
  <metadata
     id="metadata10">
    <rdf:RDF>
      <cc:Work
         rdf:about="">
        <dc:format>image/svg+xml</dc:format>
        <dc:type
           rdf:resource="http://purl.org/dc/dcmitype/StillImage" />
        <dc:title></dc:title>
      </cc:Work>
    </rdf:RDF>
  </metadata>
  <defs
     id="defs8" />
  <sodipodi:namedview
     pagecolor="#ffffff"
     bordercolor="#666666"
     borderopacity="1"
     objecttolerance="10"
     gridtolerance="10"
     guidetolerance="10"
     inkscape:pageopacity="0"
     inkscape:pageshadow="2"
     inkscape:window-width="1920"
     inkscape:window-height="1015"
     id="namedview6"
     showgrid="false"
     inkscape:zoom="12.506951"
     inkscape:cx="20.011018"
     inkscape:cy="25.328379"
     inkscape:window-x="0"
     inkscape:window-y="34"
     inkscape:window-maximized="1"
     inkscape:current-layer="svg4" />
  <path
     d="M 7.6666667,3.75 C 7.0040158,3.75 6.375,4.3851913 6.375,5.0543478 V 32.445652 C 6.375,33.077443 7.0376508,33.75 7.6666667,33.75 H 28.333333 c 0.625649,0 1.291667,-0.672557 1.291667,-1.304348 V 5.0543478 C 29.625,4.3851913 28.999351,3.75 28.333333,3.75 Z"
     fill="#fc4848"
     id="path880"
     style="stroke-width:0.865328;fill:#000000;fill-opacity:1;opacity:0.3" />
  <path
     d="M 7.6666667,3 C 7.0040158,3 6.375,3.6351913 6.375,4.3043478 V 31.695652 C 6.375,32.327443 7.0376508,33 7.6666667,33 H 28.333333 C 28.958982,33 29.625,32.327443 29.625,31.695652 V 4.3043478 C 29.625,3.6351913 28.999351,3 28.333333,3 Z"
     fill="#fc4848"
     id="path2"
     style="stroke-width:0.865328" />
</svg>

<svg width="36pt" height="36pt" version="1.1" viewBox="0 0 36 36" xmlns="http://www.w3.org/2000/svg"><path d="m7.6667 3.75c-0.66265 0-1.2917 0.63519-1.2917 1.3043v27.391c0 0.63179 0.66265 1.3043 1.2917 1.3043h20.667c0.62565 0 1.2917-0.67256 1.2917-1.3043v-27.391c0-0.66916-0.62565-1.3043-1.2917-1.3043z" opacity=".1" stroke-width=".86533"/><path d="m7.6667 3c-0.66265 0-1.2917 0.63519-1.2917 1.3043v27.391c0 0.63179 0.66265 1.3043 1.2917 1.3043h20.667c0.62565 0 1.2917-0.67256 1.2917-1.3043v-27.391c0-0.66916-0.62565-1.3043-1.2917-1.3043z" fill="#fc4848" stroke-width=".86533"/></svg>
